public/assets/undulate.svg

<svg xmlns="http://www.w3.org/2000/svg" version="1.1" xmlns:xlink="http://www.w3.org/1999/xlink" xmlns:svgjs="http://svgjs.dev/svgjs" viewBox="0 0 800 800" opacity="1"><defs><linearGradient x1="50%" y1="0%" x2="50%" y2="100%" id="uundulate-grad"><stop stop-color="#c62368" stop-opacity="1" offset="45%"></stop><stop stop-color="#64baff" stop-opacity="1" offset="100%"></stop></linearGradient></defs><g stroke-width="2" stroke="url(#uundulate-grad)" fill="none"><path d="M669.1892252743919 368.50478321779747C675.3371937745308 477.2595539297506 589.3822611272367 614.1911842914027 488.7671771257658 655.9284882372156C388.1520931242949 697.6657921830284 252.96570625489124 652.468344218041 186.23682206733264 568.8438421577004C119.50793787977409 485.2193400973597 111.589344221783 345.14301445963486 168.46853302548453 254.53087834758105C225.34772182918613 163.91874223552725 354.9401174399102 110.16102530521232 459.25692832509924 133.90558881984083C563.5737392102883 157.65015233446934 663.0412567742529 259.7500125058444 669.1892252743919 368.50478321779747C675.3371937745308 477.2595539297506 589.3822611272367 614.1911842914027 488.7671771257658 655.9284882372156 "></path><path d="M644.7174775221745 371.3679847434522C650.3065397950279 470.2359581179551 572.1656919338516 594.7192584467297 480.6974337506962 632.6622620338323C389.2291755675408 670.6052656209349 266.3324602317193 629.5166765618553 205.6698382430297 553.4944019615457C145.00721625434005 477.47212736123606 137.80849474707543 350.1300131451226 189.51684820498593 267.75534395234644C241.22520166289644 185.38067475957024 359.03647039991836 136.51002300473846 453.86993484099935 158.09598983621896C548.7033992820803 179.6819566676994 639.1284152493209 272.50001136894946 644.7174775221745 371.3679847434522C650.3065397950279 470.2359581179551 572.1656919338516 594.7192584467297 480.6974337506962 632.6622620338323 "></path><path d="M620.245729769957 374.23118626910696C625.275885815525 463.21236230615955 554.9491227404664 575.2473326020568 472.62769037562657 609.3960358304491C390.3062580107867 643.5447390588415 279.69921420854735 606.5650089056699 225.10285441872674 538.1449617653911C170.50649462890607 469.72491462511243 164.02764527236792 355.1170118306104 210.5651633844874 280.97980955711176C257.1026814966068 206.84260728361318 363.13282335992653 162.85902070426465 448.48294135689935 182.28639085259704C533.8330593538723 201.71376100092942 615.2155737243888 285.2500102320545 620.245729769957 374.23118626910696C625.275885815525 463.21236230615955 554.9491227404664 575.2473326020568 472.62769037562657 609.3960358304491 "></path><path d="M595.7739820177395 377.0943877947618C600.2452318360224 456.188766494364 537.7325535470812 555.7754067573837 464.55794700055696 586.1298096270659C391.3833404540326 616.4842124967479 293.0659681853754 583.6133412494844 244.53587059442373 522.7955215692366C196.0057730034721 461.9777018889888 190.24679579766035 360.1040105160981 231.6134785639888 294.20427516187715C272.9801613303172 228.30453980765617 367.2291763199347 189.2080184037908 443.09594787279946 206.47679186897517C518.9627194256643 223.7455653341595 591.3027321994567 298.00000909515956 595.7739820177395 377.0943877947618C600.2452318360224 456.188766494364 537.7325535470812 555.7754067573837 464.55794700055696 586.1298096270659 "></path><path d="M571.3022342655221 379.95758932041656C575.2145778565196 449.1651706825685 520.515984353696 536.3034809127107 456.48820362548736 562.8635834236826C392.4604228972786 589.4236859346545 306.4327221622035 560.6616735932987 263.9688867701208 507.44608137308205C221.50505137803805 454.2304891528652 216.46594632295285 365.09100920158585 252.6617937434902 307.4287407666425C288.85764116402754 249.76647233169916 371.3255292799429 215.55701610331693 437.70895438869957 230.66719288535324C504.09237949745625 245.77736966738956 567.3898906745246 310.7500079582646 571.3022342655221 379.95758932041656C575.2145778565196 449.1651706825685 520.515984353696 536.3034809127107 456.48820362548736 562.8635834236826 "></path><path d="M546.8304865133047 382.8207603284932C550.1839238770167 442.14154435319483 503.2994151603109 516.8315245504597 448.41846025041764 539.5973267027214C393.5375053405245 562.363128854983 319.7994761390316 537.7099754195351 283.4019029458178 492.0966106593494C247.00432975260406 446.48324589916353 242.68509684824528 370.07797736949544 273.7101089229916 320.65317585382974C304.73512099773785 271.22837433816403 375.421882239951 241.90598328526494 432.32196090459956 254.85756338415325C489.2220395692482 267.8091434830415 543.4770491495925 323.4999763037915 546.8304865133047 382.8207603284932C550.1839238770167 442.14154435319483 503.2994151603109 516.8315245504597 448.41846025041764 539.5973267027214 "></path><path d="M522.3587387610872 385.6839923717261C525.153269897514 435.11797905897754 486.0828459669258 497.3596292233649 440.34871687534815 516.3311310169162C394.6145877837704 535.3026328104675 333.16623011585966 514.7583382809277 302.8349191215149 476.74720098077285C272.50360812717 438.73606368061803 268.9042473735377 375.0650065725613 294.758424102493 333.8776719761732C320.6126008314482 292.6903373797851 379.5182351999592 268.25501150236926 426.9349674204997 279.04799491810945C474.3516996410401 289.8409783338497 519.5642076246604 336.25000568447473 522.3587387610872 385.6839923717261C525.153269897514 435.11797905897754 486.0828459669258 497.3596292233649 440.34871687534815 516.3311310169162 "></path><path d="M497.8869910088697 388.5471938973809C500.1226159180112 428.094383247182 468.8662767735407 477.88770337869187 432.2789735002785 493.06490481353296C395.6916702270163 508.24210624837394 346.53298409268774 491.8066706247422 322.26793529721186 461.3977607846183C298.00288650173604 430.9888509444944 295.1233978988302 380.05200525804906 315.8067392819944 347.1021375809386C336.4900806651586 314.1522699038281 383.61458815996735 294.6040092018954 421.5479739363997 303.2383959344876C459.48135971283216 311.8727826670798 495.6513660997284 349.00000454757975 497.8869910088697 388.5471938973809C500.1226159180112 428.094383247182 468.8662767735407 477.88770337869187 432.2789735002785 493.06490481353296 "></path><path d="M473.4152432566523 391.4103649054575C475.09196193850835 421.07075691780835 451.64970758015545 458.4157470164408 424.2092301252088 469.7986480925716C396.76875267026224 481.1815491687024 359.8997380695158 468.8549724509785 341.7009514729089 446.0482900708856C323.502164876302 423.2416076907927 321.34254842412264 385.03897342595866 336.8550544614958 360.3265726681258C352.36756049886895 335.61417191029295 387.71094111997553 320.9529763838434 416.1609804522998 327.42876643328754C444.6110197846241 333.90455648273166 471.7385245747962 361.7499728931067 473.4152432566523 391.4103649054575C475.09196193850835 421.07075691780835 451.64970758015545 458.4157470164408 424.2092301252088 469.7986480925716 "></path><path d="M448.9435107632239 394.27359694869045C450.06132321779467 414.047191623591 434.4331536455594 438.94385168934593 416.1395020089283 446.5324524067665C397.8458503722972 454.121053124187 373.2665073051329 445.9033353123711 361.133982907395 430.69888039230915C349.0014585096571 415.4944254722472 347.56171420820414 390.0260026290245 357.90338489978626 373.5510687904693C368.2450555913683 357.07613495191407 391.8073093387727 347.30200460094767 410.77400222698896 351.6191979672438C429.74069511520514 355.93639133353986 447.8256983086533 374.5000022737899 448.9435107632239 394.27359694869045C450.06132321779467 414.047191623591 434.4331536455594 438.94385168934593 416.1395020089283 446.5324524067665 "></path><path d="M424.4717477522174 397.1367984743452C425.0306539795028 407.02359581179553 417.21656919338517 419.47192584467297 408.0697433750696 423.2662262033832C398.9229175567541 427.0605265620935 386.6332460231719 422.9516676561855 380.56698382430295 415.34944019615455C374.500721625434 407.74721273612363 373.78084947470757 395.0130013145123 378.9516848204986 386.7755343952346C384.12252016628963 378.538067475957 395.9036470399918 373.65100230047386 405.38699348409995 375.80959898362187C414.870339928208 377.96819566676993 423.9128415249321 387.2500011368949 424.4717477522174 397.1367984743452C425.0306539795028 407.02359581179553 417.21656919338517 419.47192584467297 408.0697433750696 423.2662262033832 "></path></g></svg>

<svg xmlns="http://www.w3.org/2000/svg" viewBox="0 0 800 800"><defs><linearGradient x1="50%" y1="0%" x2="50%" y2="100%" id="a"><stop stop-color="#c62368" offset="45%"/><stop stop-color="#64baff" offset="100%"/></linearGradient></defs><g stroke-width="2" stroke="url(#a)" fill="none"><path d="M669.19 368.505c6.147 108.755-79.808 245.686-180.423 287.423-100.615 41.738-235.801-3.46-302.53-87.084-66.73-83.625-74.648-223.701-17.768-314.313 56.879-90.612 186.471-144.37 290.788-120.625C563.574 157.65 663.04 259.75 669.189 368.505c6.148 108.755-79.807 245.686-180.422 287.423"/><path d="M644.717 371.368c5.59 98.868-72.551 223.351-164.02 261.294-91.468 37.943-214.365-3.145-275.027-79.168-60.663-76.022-67.862-203.364-16.153-285.739 51.708-82.374 169.52-131.245 264.353-109.659S639.128 272.5 644.717 371.368c5.59 98.868-72.551 223.351-164.02 261.294"/><path d="M620.246 374.231c5.03 88.981-65.297 201.016-147.618 235.165-82.322 34.149-192.929-2.831-247.525-71.251-54.597-68.42-61.075-183.028-14.538-257.165 46.538-74.137 152.568-118.121 237.918-98.694 85.35 19.428 166.733 102.964 171.763 191.945 5.03 88.981-65.297 201.016-147.618 235.165"/><path d="M595.774 377.094c4.471 79.095-58.041 178.681-131.216 209.036-73.175 30.354-171.492-2.517-220.022-63.334-48.53-60.818-54.29-162.692-12.923-228.592s135.616-104.996 211.483-87.727C518.963 223.746 591.303 298 595.774 377.094c4.471 79.095-58.041 178.681-131.216 209.036"/><path d="M571.302 379.958c3.913 69.207-50.786 156.345-114.814 182.906-64.028 26.56-150.055-2.202-192.52-55.418-42.463-53.216-47.502-142.355-11.306-200.017 36.196-57.663 118.664-91.872 185.047-76.762s129.68 80.083 133.593 149.29c3.913 69.208-50.786 156.346-114.814 182.907"/><path d="M546.83 382.82c3.354 59.322-43.53 134.012-98.412 156.777-54.88 22.766-128.619-1.887-165.016-47.5-36.398-45.614-40.717-122.019-9.692-171.444 31.025-49.425 101.712-78.747 158.612-65.795 56.9 12.951 111.155 68.642 114.508 127.963 3.354 59.32-43.53 134.01-98.412 156.776"/><path d="M522.359 385.684c2.794 49.434-36.276 111.676-82.01 130.647-45.734 18.972-107.183-1.573-137.514-39.584-30.331-38.01-33.93-101.682-8.077-142.87 25.855-41.187 84.76-65.622 132.177-54.829 47.417 10.793 92.63 57.202 95.424 106.636 2.794 49.434-36.276 111.676-82.01 130.647"/><path d="M497.887 388.547c2.236 39.547-29.02 89.34-65.608 104.518-36.587 15.177-85.746-1.258-110.011-31.667-24.265-30.41-27.145-81.346-6.461-114.296 20.683-32.95 67.808-52.498 105.741-43.864 37.933 8.635 74.103 45.762 76.339 85.31 2.236 39.546-29.02 89.34-65.608 104.517"/><path d="M473.415 391.41c1.677 29.66-21.765 67.006-49.206 78.389-27.44 11.383-64.31-.944-82.508-23.75-18.199-22.807-20.358-61.01-4.846-85.722 15.513-24.713 50.856-39.374 79.306-32.898 28.45 6.476 55.578 34.321 57.254 63.981 1.677 29.66-21.765 67.006-49.206 78.389"/><path d="M448.944 394.274c1.117 19.773-14.51 44.67-32.804 52.258-18.294 7.59-42.873-.629-55.006-15.833-12.133-15.205-13.572-40.673-3.23-57.148 10.341-16.475 33.903-26.249 52.87-21.932s37.052 22.881 38.17 42.655c1.117 19.773-14.51 44.67-32.804 52.258"/><path d="M424.472 397.137c.559 9.887-7.255 22.335-16.402 26.13-9.147 3.794-21.437-.315-27.503-7.918-6.066-7.602-6.786-20.336-1.615-28.573 5.17-8.238 16.952-13.125 26.435-10.966 9.483 2.158 18.526 11.44 19.085 21.327.559 9.887-7.255 22.335-16.402 26.13"/></g></svg>
